X:147
T:Greers On the Rocks
C:2010 L.E. McCullough
M:6/8
L:1/8
K:D
|:~D3 DB,A,|DEF A2A|BGB AFD|~G3 FDB,|
~D3 DB,A,|DEF A2A|~B3  AFA|GFE D2A:|
|:~B3 BAF|ABc d2A|~B3 BAF|AFE ~E2A|
~B3 BAF|ABc d2f|geg fdf|gec d2A:|

